public/images/logo.svg

<svg xmlns:inkscape="http://www.inkscape.org/namespaces/inkscape" xmlns:sodipodi="http://sodipodi.sourceforge.net/DTD/sodipodi-0.dtd" xmlns="http://www.w3.org/2000/svg" xmlns:svg="http://www.w3.org/2000/svg" version="1.1" id="svg42" sodipodi:docname="a8eb87613a9c7caa85b6e895fe9a43f8.svg" viewBox="0 0 625 204">
  <defs id="defs46"/>
  <sodipodi:namedview id="namedview44" pagecolor="#ffffff" bordercolor="#666666" borderopacity="1.0" inkscape:pageshadow="2" inkscape:pageopacity="0.0" inkscape:pagecheckerboard="0"/>
  <g stroke-width="2" fill="none" stroke-linecap="butt" id="g20">
    <path stroke="#f29b8f" vector-effect="non-scaling-stroke" d="m 148.74,102.19 a 38.82,38.82 0 0 0 -38.82,-38.82 38.82,38.82 0 0 0 -38.82,38.82 38.82,38.82 0 0 0 38.82,38.82 38.82,38.82 0 0 0 38.82,-38.82" id="path2"/>
    <path stroke="#878788" vector-effect="non-scaling-stroke" d="M 417.52,107.92 Q 417.45,89.3 417.51,70.7 c 0.03,-8.55 -9.5,-7.9 -9.51,-1.95 q -0.01,32.03 0.01,64.07 0,3.39 0.65,4.63 c 1.78,3.42 7.97,2.89 8.6,-1.2 q 0.57,-3.67 0.12,-14.96 -0.02,-0.59 0.39,-1.03 l 3.56,-3.78 a 1,1 0 0 1 1.51,0.06 q 9.19,11.5 18.09,22.3 c 3.78,4.59 11.14,-0.82 6.3,-6.84 q -8.91,-11.05 -17.91,-21.97 a 0.38,0.38 0 0 1 0.04,-0.54 c 5.68,-4.92 11.23,-10.2 17.1,-14.93 3.95,-3.19 1.75,-9.68 -3.84,-7.91 q -1.02,0.32 -3.88,2.84 -10.49,9.22 -20.85,18.59 -0.36,0.34 -0.37,-0.16" id="path4"/>
    <path stroke="#878788" vector-effect="non-scaling-stroke" d="m 250.42,88.26 q 0.28,-6.84 -0.07,-13.7 c -0.34,-6.47 -9.33,-6.03 -9.42,0.69 q -0.31,22.54 -0.05,45.05 0.14,12.16 9.57,17.66 c 3.15,1.84 10.3,3 13.24,0.3 4.04,-3.72 0.25,-7.93 -4.3,-7.95 q -8.39,-0.02 -8.81,-8.89 -0.29,-6.19 0,-23.85 0.01,-0.53 0.54,-0.54 c 2.79,-0.08 7.99,0.57 10.25,-0.71 2.4,-1.35 2.49,-4.89 0.31,-6.56 -2.23,-1.71 -8.03,-0.98 -10.82,-1.04 q -0.46,-0.01 -0.44,-0.46" id="path6"/>
    <path stroke="#878788" vector-effect="non-scaling-stroke" d="m 217.75,108.62 c -2.09,-25.38 -24.38,-22.54 -42.63,-22.36 -3.88,0.04 -6.85,1.25 -6.85,5.49 q -0.05,21.34 0,42.68 c 0,1.28 0.73,2.42 1.03,3.68 q 0.12,0.5 0.56,0.74 c 5.54,2.94 8.41,-0.59 8.4,-5.89 q -0.04,-12.35 -0.05,-24.71 c -0.02,-17.24 29.9,-17.84 29.99,2.25 q 0.05,12.6 0.07,25.19 c 0.01,5.34 9.29,6.17 9.73,-0.75 q 0.83,-13.21 -0.25,-26.32" id="path8"/>
    <path stroke="#878788" vector-effect="non-scaling-stroke" d="m 280.73,103.72 c -5.81,14.23 2.37,32.93 18.1,36.05 q 3.47,0.69 14.4,0.78 c 3.56,0.03 18.95,1.53 18.99,-4.1 q 0.08,-10.86 -0.01,-21.69 C 331.93,84.15 292.37,75.22 280.73,103.72" id="path10"/>
    <path stroke="#878788" vector-effect="non-scaling-stroke" d="m 352.39,93.9 c -4.66,6.28 -2.12,13.89 3.87,17.8 6.82,4.46 15.86,4.75 21.06,7.2 6.13,2.89 5.48,10.09 -1.05,11.89 q -7.17,1.97 -14.41,-0.93 c -3.98,-1.59 -9.14,-8.67 -13.2,-2.41 -6.61,10.23 35.56,22.03 41.91,1.07 5.02,-16.59 -15.97,-18.92 -26.07,-21.75 -3.58,-1 -6.7,-5.19 -4.02,-8.49 3.32,-4.08 11.82,-3.6 16.22,-2.1 3.91,1.33 9.46,8.64 13.37,2.33 a 1.45,1.4 58.2 0 0 0.2,-0.92 c -0.94,-8.72 -16.69,-11.66 -23.29,-10.87 -6.13,0.73 -10.97,2.3 -14.59,7.18" id="path12"/>
    <path stroke="#f29b8f" vector-effect="non-scaling-stroke" d="M 145.13,102.2 A 35.22,35.22 0 0 0 109.91,66.98 35.22,35.22 0 0 0 74.69,102.2 35.22,35.22 0 0 0 109.91,137.42 35.22,35.22 0 0 0 145.13,102.2" id="path14"/>
    <path stroke="#f29b8f" vector-effect="non-scaling-stroke" d="m 123.38,93.47 a 0.56,0.56 0 0 0 -0.03,-0.82 l -1.87,-1.59 a 0.56,0.56 0 0 0 -0.77,0.04 l -10.59,11.03 a 0.56,0.56 0 0 1 -0.78,0.03 L 90.59,85.28 a 0.56,0.56 0 0 0 -0.77,0.02 l -1.68,1.68 a 0.56,0.56 0 0 0 0.02,0.81 L 109.52,107 a 0.56,0.56 0 0 0 0.78,-0.03 l 13.08,-13.5" id="path16"/>
    <path stroke="#878788" vector-effect="non-scaling-stroke" d="m 305.6032,131.4999 a 18.1,17.17 89.8 0 0 17.1067,-18.1598 18.1,17.17 89.8 0 0 -17.2331,-18.04 18.1,17.17 89.8 0 0 -17.1067,18.1598 18.1,17.17 89.8 0 0 17.2331,18.04" id="path18"/>
  </g>
  <path fill="#fcfcfc" d="M 0,0 H 625 V 204 H 0 Z m 148.74,102.19 a 38.82,38.82 0 0 0 -38.82,-38.82 38.82,38.82 0 0 0 -38.82,38.82 38.82,38.82 0 0 0 38.82,38.82 38.82,38.82 0 0 0 38.82,-38.82 z m 268.78,5.73 Q 417.45,89.3 417.51,70.7 c 0.03,-8.55 -9.5,-7.9 -9.51,-1.95 q -0.01,32.03 0.01,64.07 0,3.39 0.65,4.63 c 1.78,3.42 7.97,2.89 8.6,-1.2 q 0.57,-3.67 0.12,-14.96 -0.02,-0.59 0.39,-1.03 l 3.56,-3.78 a 1,1 0 0 1 1.51,0.06 q 9.19,11.5 18.09,22.3 c 3.78,4.59 11.14,-0.82 6.3,-6.84 q -8.91,-11.05 -17.91,-21.97 a 0.38,0.38 0 0 1 0.04,-0.54 c 5.68,-4.92 11.23,-10.2 17.1,-14.93 3.95,-3.19 1.75,-9.68 -3.84,-7.91 q -1.02,0.32 -3.88,2.84 -10.49,9.22 -20.85,18.59 -0.36,0.34 -0.37,-0.16 z M 250.42,88.26 q 0.28,-6.84 -0.07,-13.7 c -0.34,-6.47 -9.33,-6.03 -9.42,0.69 q -0.31,22.54 -0.05,45.05 0.14,12.16 9.57,17.66 c 3.15,1.84 10.3,3 13.24,0.3 4.04,-3.72 0.25,-7.93 -4.3,-7.95 q -8.39,-0.02 -8.81,-8.89 -0.29,-6.19 0,-23.85 0.01,-0.53 0.54,-0.54 c 2.79,-0.08 7.99,0.57 10.25,-0.71 2.4,-1.35 2.49,-4.89 0.31,-6.56 -2.23,-1.71 -8.03,-0.98 -10.82,-1.04 q -0.46,-0.01 -0.44,-0.46 z m -32.67,20.36 c -2.09,-25.38 -24.38,-22.54 -42.63,-22.36 -3.88,0.04 -6.85,1.25 -6.85,5.49 q -0.05,21.34 0,42.68 c 0,1.28 0.73,2.42 1.03,3.68 q 0.12,0.5 0.56,0.74 c 5.54,2.94 8.41,-0.59 8.4,-5.89 q -0.04,-12.35 -0.05,-24.71 c -0.02,-17.24 29.9,-17.84 29.99,2.25 q 0.05,12.6 0.07,25.19 c 0.01,5.34 9.29,6.17 9.73,-0.75 q 0.83,-13.21 -0.25,-26.32 z m 62.98,-4.9 c -5.81,14.23 2.37,32.93 18.1,36.05 q 3.47,0.69 14.4,0.78 c 3.56,0.03 18.95,1.53 18.99,-4.1 q 0.08,-10.86 -0.01,-21.69 C 331.93,84.15 292.37,75.22 280.73,103.72 Z m 71.66,-9.82 c -4.66,6.28 -2.12,13.89 3.87,17.8 6.82,4.46 15.86,4.75 21.06,7.2 6.13,2.89 5.48,10.09 -1.05,11.89 q -7.17,1.97 -14.41,-0.93 c -3.98,-1.59 -9.14,-8.67 -13.2,-2.41 -6.61,10.23 35.56,22.03 41.91,1.07 5.02,-16.59 -15.97,-18.92 -26.07,-21.75 -3.58,-1 -6.7,-5.19 -4.02,-8.49 3.32,-4.08 11.82,-3.6 16.22,-2.1 3.91,1.33 9.46,8.64 13.37,2.33 a 1.45,1.4 58.2 0 0 0.2,-0.92 c -0.94,-8.72 -16.69,-11.66 -23.29,-10.87 -6.13,0.73 -10.97,2.3 -14.59,7.18 z" id="path22"/>
  <path fill="#e73a22" d="m 148.74,102.19 a 38.82,38.82 0 0 1 -38.82,38.82 38.82,38.82 0 0 1 -38.82,-38.82 38.82,38.82 0 0 1 38.82,-38.82 38.82,38.82 0 0 1 38.82,38.82 z m -3.61,0.01 a 35.22,35.22 0 0 0 -35.22,-35.22 35.22,35.22 0 0 0 -35.22,35.22 35.22,35.22 0 0 0 35.22,35.22 35.22,35.22 0 0 0 35.22,-35.22 z" id="path24"/>
  <path fill="#121213" d="m 417.89,108.08 q 10.36,-9.37 20.85,-18.59 2.86,-2.52 3.88,-2.84 c 5.59,-1.77 7.79,4.72 3.84,7.91 -5.87,4.73 -11.42,10.01 -17.1,14.93 a 0.38,0.38 0 0 0 -0.04,0.54 q 9,10.92 17.91,21.97 c 4.84,6.02 -2.52,11.43 -6.3,6.84 q -8.9,-10.8 -18.09,-22.3 a 1,1 0 0 0 -1.51,-0.06 l -3.56,3.78 q -0.41,0.44 -0.39,1.03 0.45,11.29 -0.12,14.96 c -0.63,4.09 -6.82,4.62 -8.6,1.2 q -0.65,-1.24 -0.65,-4.63 -0.02,-32.04 -0.01,-64.07 c 0.01,-5.95 9.54,-6.6 9.51,1.95 q -0.06,18.6 0.01,37.22 0.01,0.5 0.37,0.16 z" id="path26"/>
  <path fill="#fcfcfc" d="m 145.13,102.2 a 35.22,35.22 0 0 1 -35.22,35.22 35.22,35.22 0 0 1 -35.22,-35.22 35.22,35.22 0 0 1 35.22,-35.22 35.22,35.22 0 0 1 35.22,35.22 z m -21.75,-8.73 a 0.56,0.56 0 0 0 -0.03,-0.82 l -1.87,-1.59 a 0.56,0.56 0 0 0 -0.77,0.04 l -10.59,11.03 a 0.56,0.56 0 0 1 -0.78,0.03 L 90.59,85.28 a 0.56,0.56 0 0 0 -0.77,0.02 l -1.68,1.68 a 0.56,0.56 0 0 0 0.02,0.81 L 109.52,107 a 0.56,0.56 0 0 0 0.78,-0.03 z" id="path28"/>
  <path fill="#121213" d="m 250.86,88.72 c 2.79,0.06 8.59,-0.67 10.82,1.04 2.18,1.67 2.09,5.21 -0.31,6.56 -2.26,1.28 -7.46,0.63 -10.25,0.71 q -0.53,0.01 -0.54,0.54 -0.29,17.66 0,23.85 0.42,8.87 8.81,8.89 c 4.55,0.02 8.34,4.23 4.3,7.95 -2.94,2.7 -10.09,1.54 -13.24,-0.3 q -9.43,-5.5 -9.57,-17.66 -0.26,-22.51 0.05,-45.05 c 0.09,-6.72 9.08,-7.16 9.42,-0.69 q 0.35,6.86 0.07,13.7 -0.02,0.45 0.44,0.46 z" id="path30"/>
  <path fill="#e73a22" d="m 123.38,93.47 -13.08,13.5 A 0.56,0.56 0 0 1 109.52,107 L 88.16,87.79 a 0.56,0.56 0 0 1 -0.02,-0.81 l 1.68,-1.68 a 0.56,0.56 0 0 1 0.77,-0.02 l 18.75,16.88 a 0.56,0.56 0 0 0 0.78,-0.03 L 120.71,91.1 a 0.56,0.56 0 0 1 0.77,-0.04 l 1.87,1.59 a 0.56,0.56 0 0 1 0.03,0.82 z" id="path32"/>
  <path fill="#121213" d="m 175.12,86.26 c 18.25,-0.18 40.54,-3.02 42.63,22.36 q 1.08,13.11 0.25,26.32 c -0.44,6.92 -9.72,6.09 -9.73,0.75 Q 208.25,123.1 208.2,110.5 c -0.09,-20.09 -30.01,-19.49 -29.99,-2.25 q 0.01,12.36 0.05,24.71 c 0.01,5.3 -2.86,8.83 -8.4,5.89 q -0.44,-0.24 -0.56,-0.74 c -0.3,-1.26 -1.03,-2.4 -1.03,-3.68 q -0.05,-21.34 0,-42.68 c 0,-4.24 2.97,-5.45 6.85,-5.49 z" id="path34"/>
  <path fill="#121213" d="m 280.73,103.72 c 11.64,-28.5 51.2,-19.57 51.48,11.04 q 0.09,10.83 0.01,21.69 c -0.04,5.63 -15.43,4.13 -18.99,4.1 q -10.93,-0.09 -14.4,-0.78 c -15.73,-3.12 -23.91,-21.82 -18.1,-36.05 z m 24.8732,27.7799 a 18.1,17.17 89.8 0 0 17.1067,-18.1598 18.1,17.17 89.8 0 0 -17.2331,-18.04 18.1,17.17 89.8 0 0 -17.1067,18.1598 18.1,17.17 89.8 0 0 17.2331,18.04 z" id="path36"/>
  <path fill="#121213" d="m 352.39,93.9 c 3.62,-4.88 8.46,-6.45 14.59,-7.18 6.6,-0.79 22.35,2.15 23.29,10.87 a 1.45,1.4 58.2 0 1 -0.2,0.92 c -3.91,6.31 -9.46,-1 -13.37,-2.33 -4.4,-1.5 -12.9,-1.98 -16.22,2.1 -2.68,3.3 0.44,7.49 4.02,8.49 10.1,2.83 31.09,5.16 26.07,21.75 -6.35,20.96 -48.52,9.16 -41.91,-1.07 4.06,-6.26 9.22,0.82 13.2,2.41 q 7.24,2.9 14.41,0.93 c 6.53,-1.8 7.18,-9 1.05,-11.89 -5.2,-2.45 -14.24,-2.74 -21.06,-7.2 -5.99,-3.91 -8.53,-11.52 -3.87,-17.8 z" id="path38"/>
  <ellipse fill="#fcfcfc" cx="114.46584" cy="-305.1423" transform="rotate(89.8)" rx="18.1" ry="17.17" id="ellipse40"/>
</svg>

<?xml version="1.0" encoding="UTF-8" standalone="no"?>
<!DOCTYPE svg PUBLIC "-//W3C//DTD SVG 1.1//EN" "http://www.w3.org/Graphics/SVG/1.1/DTD/svg11.dtd">
<svg xmlns="http://www.w3.org/2000/svg" version="1.1" viewBox="0.00 0.00 625.00 204.00">
<g stroke-width="2.00" fill="none" stroke-linecap="butt">
<path stroke="#f29b8f" vector-effect="non-scaling-stroke" d="
  M 148.74 102.19
  A 38.82 38.82 0.0 0 0 109.92 63.37
  A 38.82 38.82 0.0 0 0 71.10 102.19
  A 38.82 38.82 0.0 0 0 109.92 141.01
  A 38.82 38.82 0.0 0 0 148.74 102.19"
/>
<path stroke="#878788" vector-effect="non-scaling-stroke" d="
  M 417.52 107.92
  Q 417.45 89.30 417.51 70.70
  C 417.54 62.15 408.01 62.80 408.00 68.75
  Q 407.99 100.78 408.01 132.82
  Q 408.01 136.21 408.66 137.45
  C 410.44 140.87 416.63 140.34 417.26 136.25
  Q 417.83 132.58 417.38 121.29
  Q 417.36 120.70 417.77 120.26
  L 421.33 116.48
  A 1.00 1.00 0.0 0 1 422.84 116.54
  Q 432.03 128.04 440.93 138.84
  C 444.71 143.43 452.07 138.02 447.23 132.00
  Q 438.32 120.95 429.32 110.03
  A 0.38 0.38 0.0 0 1 429.36 109.49
  C 435.04 104.57 440.59 99.29 446.46 94.56
  C 450.41 91.37 448.21 84.88 442.62 86.65
  Q 441.60 86.97 438.74 89.49
  Q 428.25 98.71 417.89 108.08
  Q 417.53 108.42 417.52 107.92"
/>
<path stroke="#878788" vector-effect="non-scaling-stroke" d="
  M 250.42 88.26
  Q 250.70 81.42 250.35 74.56
  C 250.01 68.09 241.02 68.53 240.93 75.25
  Q 240.62 97.79 240.88 120.30
  Q 241.02 132.46 250.45 137.96
  C 253.60 139.80 260.75 140.96 263.69 138.26
  C 267.73 134.54 263.94 130.33 259.39 130.31
  Q 251.00 130.29 250.58 121.42
  Q 250.29 115.23 250.58 97.57
  Q 250.59 97.04 251.12 97.03
  C 253.91 96.95 259.11 97.60 261.37 96.32
  C 263.77 94.97 263.86 91.43 261.68 89.76
  C 259.45 88.05 253.65 88.78 250.86 88.72
  Q 250.40 88.71 250.42 88.26"
/>
<path stroke="#878788" vector-effect="non-scaling-stroke" d="
  M 217.75 108.62
  C 215.66 83.24 193.37 86.08 175.12 86.26
  C 171.24 86.30 168.27 87.51 168.27 91.75
  Q 168.22 113.09 168.27 134.43
  C 168.27 135.71 169.00 136.85 169.30 138.11
  Q 169.42 138.61 169.86 138.85
  C 175.40 141.79 178.27 138.26 178.26 132.96
  Q 178.22 120.61 178.21 108.25
  C 178.19 91.01 208.11 90.41 208.20 110.50
  Q 208.25 123.10 208.27 135.69
  C 208.28 141.03 217.56 141.86 218.00 134.94
  Q 218.83 121.73 217.75 108.62"
/>
<path stroke="#878788" vector-effect="non-scaling-stroke" d="
  M 280.73 103.72
  C 274.92 117.95 283.10 136.65 298.83 139.77
  Q 302.30 140.46 313.23 140.55
  C 316.79 140.58 332.18 142.08 332.22 136.45
  Q 332.30 125.59 332.21 114.76
  C 331.93 84.15 292.37 75.22 280.73 103.72"
/>
<path stroke="#878788" vector-effect="non-scaling-stroke" d="
  M 352.39 93.90
  C 347.73 100.18 350.27 107.79 356.26 111.70
  C 363.08 116.16 372.12 116.45 377.32 118.90
  C 383.45 121.79 382.80 128.99 376.27 130.79
  Q 369.10 132.76 361.86 129.86
  C 357.88 128.27 352.72 121.19 348.66 127.45
  C 342.05 137.68 384.22 149.48 390.57 128.52
  C 395.59 111.93 374.60 109.60 364.50 106.77
  C 360.92 105.77 357.80 101.58 360.48 98.28
  C 363.80 94.20 372.30 94.68 376.70 96.18
  C 380.61 97.51 386.16 104.82 390.07 98.51
  A 1.45 1.40 58.2 0 0 390.27 97.59
  C 389.33 88.87 373.58 85.93 366.98 86.72
  C 360.85 87.45 356.01 89.02 352.39 93.90"
/>
<path stroke="#f29b8f" vector-effect="non-scaling-stroke" d="
  M 145.13 102.20
  A 35.22 35.22 0.0 0 0 109.91 66.98
  A 35.22 35.22 0.0 0 0 74.69 102.20
  A 35.22 35.22 0.0 0 0 109.91 137.42
  A 35.22 35.22 0.0 0 0 145.13 102.20"
/>
<path stroke="#f29b8f" vector-effect="non-scaling-stroke" d="
  M 123.38 93.47
  A 0.56 0.56 0.0 0 0 123.35 92.65
  L 121.48 91.06
  A 0.56 0.56 0.0 0 0 120.71 91.10
  L 110.12 102.13
  A 0.56 0.56 0.0 0 1 109.34 102.16
  L 90.59 85.28
  A 0.56 0.56 0.0 0 0 89.82 85.30
  L 88.14 86.98
  A 0.56 0.56 0.0 0 0 88.16 87.79
  L 109.52 107.00
  A 0.56 0.56 0.0 0 0 110.30 106.97
  L 123.38 93.47"
/>
<path stroke="#878788" vector-effect="non-scaling-stroke" d="
  M 305.6032 131.4999
  A 18.10 17.17 89.8 0 0 322.7099 113.3401
  A 18.10 17.17 89.8 0 0 305.4768 95.3001
  A 18.10 17.17 89.8 0 0 288.3701 113.4599
  A 18.10 17.17 89.8 0 0 305.6032 131.4999"
/>
</g>
<path fill="#fcfcfc" d="
  M 0.00 0.00
  L 625.00 0.00
  L 625.00 204.00
  L 0.00 204.00
  L 0.00 0.00
  Z
  M 148.74 102.19
  A 38.82 38.82 0.0 0 0 109.92 63.37
  A 38.82 38.82 0.0 0 0 71.10 102.19
  A 38.82 38.82 0.0 0 0 109.92 141.01
  A 38.82 38.82 0.0 0 0 148.74 102.19
  Z
  M 417.52 107.92
  Q 417.45 89.30 417.51 70.70
  C 417.54 62.15 408.01 62.80 408.00 68.75
  Q 407.99 100.78 408.01 132.82
  Q 408.01 136.21 408.66 137.45
  C 410.44 140.87 416.63 140.34 417.26 136.25
  Q 417.83 132.58 417.38 121.29
  Q 417.36 120.70 417.77 120.26
  L 421.33 116.48
  A 1.00 1.00 0.0 0 1 422.84 116.54
  Q 432.03 128.04 440.93 138.84
  C 444.71 143.43 452.07 138.02 447.23 132.00
  Q 438.32 120.95 429.32 110.03
  A 0.38 0.38 0.0 0 1 429.36 109.49
  C 435.04 104.57 440.59 99.29 446.46 94.56
  C 450.41 91.37 448.21 84.88 442.62 86.65
  Q 441.60 86.97 438.74 89.49
  Q 428.25 98.71 417.89 108.08
  Q 417.53 108.42 417.52 107.92
  Z
  M 250.42 88.26
  Q 250.70 81.42 250.35 74.56
  C 250.01 68.09 241.02 68.53 240.93 75.25
  Q 240.62 97.79 240.88 120.30
  Q 241.02 132.46 250.45 137.96
  C 253.60 139.80 260.75 140.96 263.69 138.26
  C 267.73 134.54 263.94 130.33 259.39 130.31
  Q 251.00 130.29 250.58 121.42
  Q 250.29 115.23 250.58 97.57
  Q 250.59 97.04 251.12 97.03
  C 253.91 96.95 259.11 97.60 261.37 96.32
  C 263.77 94.97 263.86 91.43 261.68 89.76
  C 259.45 88.05 253.65 88.78 250.86 88.72
  Q 250.40 88.71 250.42 88.26
  Z
  M 217.75 108.62
  C 215.66 83.24 193.37 86.08 175.12 86.26
  C 171.24 86.30 168.27 87.51 168.27 91.75
  Q 168.22 113.09 168.27 134.43
  C 168.27 135.71 169.00 136.85 169.30 138.11
  Q 169.42 138.61 169.86 138.85
  C 175.40 141.79 178.27 138.26 178.26 132.96
  Q 178.22 120.61 178.21 108.25
  C 178.19 91.01 208.11 90.41 208.20 110.50
  Q 208.25 123.10 208.27 135.69
  C 208.28 141.03 217.56 141.86 218.00 134.94
  Q 218.83 121.73 217.75 108.62
  Z
  M 280.73 103.72
  C 274.92 117.95 283.10 136.65 298.83 139.77
  Q 302.30 140.46 313.23 140.55
  C 316.79 140.58 332.18 142.08 332.22 136.45
  Q 332.30 125.59 332.21 114.76
  C 331.93 84.15 292.37 75.22 280.73 103.72
  Z
  M 352.39 93.90
  C 347.73 100.18 350.27 107.79 356.26 111.70
  C 363.08 116.16 372.12 116.45 377.32 118.90
  C 383.45 121.79 382.80 128.99 376.27 130.79
  Q 369.10 132.76 361.86 129.86
  C 357.88 128.27 352.72 121.19 348.66 127.45
  C 342.05 137.68 384.22 149.48 390.57 128.52
  C 395.59 111.93 374.60 109.60 364.50 106.77
  C 360.92 105.77 357.80 101.58 360.48 98.28
  C 363.80 94.20 372.30 94.68 376.70 96.18
  C 380.61 97.51 386.16 104.82 390.07 98.51
  A 1.45 1.40 58.2 0 0 390.27 97.59
  C 389.33 88.87 373.58 85.93 366.98 86.72
  C 360.85 87.45 356.01 89.02 352.39 93.90
  Z"
/>
<path fill="#e73a22" d="
  M 148.74 102.19
  A 38.82 38.82 0.0 0 1 109.92 141.01
  A 38.82 38.82 0.0 0 1 71.10 102.19
  A 38.82 38.82 0.0 0 1 109.92 63.37
  A 38.82 38.82 0.0 0 1 148.74 102.19
  Z
  M 145.13 102.20
  A 35.22 35.22 0.0 0 0 109.91 66.98
  A 35.22 35.22 0.0 0 0 74.69 102.20
  A 35.22 35.22 0.0 0 0 109.91 137.42
  A 35.22 35.22 0.0 0 0 145.13 102.20
  Z"
/>
<path fill="#121213" d="
  M 417.89 108.08
  Q 428.25 98.71 438.74 89.49
  Q 441.60 86.97 442.62 86.65
  C 448.21 84.88 450.41 91.37 446.46 94.56
  C 440.59 99.29 435.04 104.57 429.36 109.49
  A 0.38 0.38 0.0 0 0 429.32 110.03
  Q 438.32 120.95 447.23 132.00
  C 452.07 138.02 444.71 143.43 440.93 138.84
  Q 432.03 128.04 422.84 116.54
  A 1.00 1.00 0.0 0 0 421.33 116.48
  L 417.77 120.26
  Q 417.36 120.70 417.38 121.29
  Q 417.83 132.58 417.26 136.25
  C 416.63 140.34 410.44 140.87 408.66 137.45
  Q 408.01 136.21 408.01 132.82
  Q 407.99 100.78 408.00 68.75
  C 408.01 62.80 417.54 62.15 417.51 70.70
  Q 417.45 89.30 417.52 107.92
  Q 417.53 108.42 417.89 108.08
  Z"
/>
<path fill="#fcfcfc" d="
  M 145.13 102.20
  A 35.22 35.22 0.0 0 1 109.91 137.42
  A 35.22 35.22 0.0 0 1 74.69 102.20
  A 35.22 35.22 0.0 0 1 109.91 66.98
  A 35.22 35.22 0.0 0 1 145.13 102.20
  Z
  M 123.38 93.47
  A 0.56 0.56 0.0 0 0 123.35 92.65
  L 121.48 91.06
  A 0.56 0.56 0.0 0 0 120.71 91.10
  L 110.12 102.13
  A 0.56 0.56 0.0 0 1 109.34 102.16
  L 90.59 85.28
  A 0.56 0.56 0.0 0 0 89.82 85.30
  L 88.14 86.98
  A 0.56 0.56 0.0 0 0 88.16 87.79
  L 109.52 107.00
  A 0.56 0.56 0.0 0 0 110.30 106.97
  L 123.38 93.47
  Z"
/>
<path fill="#121213" d="
  M 250.86 88.72
  C 253.65 88.78 259.45 88.05 261.68 89.76
  C 263.86 91.43 263.77 94.97 261.37 96.32
  C 259.11 97.60 253.91 96.95 251.12 97.03
  Q 250.59 97.04 250.58 97.57
  Q 250.29 115.23 250.58 121.42
  Q 251.00 130.29 259.39 130.31
  C 263.94 130.33 267.73 134.54 263.69 138.26
  C 260.75 140.96 253.60 139.80 250.45 137.96
  Q 241.02 132.46 240.88 120.30
  Q 240.62 97.79 240.93 75.25
  C 241.02 68.53 250.01 68.09 250.35 74.56
  Q 250.70 81.42 250.42 88.26
  Q 250.40 88.71 250.86 88.72
  Z"
/>
<path fill="#e73a22" d="
  M 123.38 93.47
  L 110.30 106.97
  A 0.56 0.56 0.0 0 1 109.52 107.00
  L 88.16 87.79
  A 0.56 0.56 0.0 0 1 88.14 86.98
  L 89.82 85.30
  A 0.56 0.56 0.0 0 1 90.59 85.28
  L 109.34 102.16
  A 0.56 0.56 0.0 0 0 110.12 102.13
  L 120.71 91.10
  A 0.56 0.56 0.0 0 1 121.48 91.06
  L 123.35 92.65
  A 0.56 0.56 0.0 0 1 123.38 93.47
  Z"
/>
<path fill="#121213" d="
  M 175.12 86.26
  C 193.37 86.08 215.66 83.24 217.75 108.62
  Q 218.83 121.73 218.00 134.94
  C 217.56 141.86 208.28 141.03 208.27 135.69
  Q 208.25 123.10 208.20 110.50
  C 208.11 90.41 178.19 91.01 178.21 108.25
  Q 178.22 120.61 178.26 132.96
  C 178.27 138.26 175.40 141.79 169.86 138.85
  Q 169.42 138.61 169.30 138.11
  C 169.00 136.85 168.27 135.71 168.27 134.43
  Q 168.22 113.09 168.27 91.75
  C 168.27 87.51 171.24 86.30 175.12 86.26
  Z"
/>
<path fill="#121213" d="
  M 280.73 103.72
  C 292.37 75.22 331.93 84.15 332.21 114.76
  Q 332.30 125.59 332.22 136.45
  C 332.18 142.08 316.79 140.58 313.23 140.55
  Q 302.30 140.46 298.83 139.77
  C 283.10 136.65 274.92 117.95 280.73 103.72
  Z
  M 305.6032 131.4999
  A 18.10 17.17 89.8 0 0 322.7099 113.3401
  A 18.10 17.17 89.8 0 0 305.4768 95.3001
  A 18.10 17.17 89.8 0 0 288.3701 113.4599
  A 18.10 17.17 89.8 0 0 305.6032 131.4999
  Z"
/>
<path fill="#121213" d="
  M 352.39 93.90
  C 356.01 89.02 360.85 87.45 366.98 86.72
  C 373.58 85.93 389.33 88.87 390.27 97.59
  A 1.45 1.40 58.2 0 1 390.07 98.51
  C 386.16 104.82 380.61 97.51 376.70 96.18
  C 372.30 94.68 363.80 94.20 360.48 98.28
  C 357.80 101.58 360.92 105.77 364.50 106.77
  C 374.60 109.60 395.59 111.93 390.57 128.52
  C 384.22 149.48 342.05 137.68 348.66 127.45
  C 352.72 121.19 357.88 128.27 361.86 129.86
  Q 369.10 132.76 376.27 130.79
  C 382.80 128.99 383.45 121.79 377.32 118.90
  C 372.12 116.45 363.08 116.16 356.26 111.70
  C 350.27 107.79 347.73 100.18 352.39 93.90
  Z"
/>
<ellipse fill="#fcfcfc" cx="0.00" cy="0.00" transform="translate(305.54,113.40) rotate(89.8)" rx="18.10" ry="17.17"/>
</svg>
